icons/sign-in-17.svg

<svg width="16" height="17" viewBox="0 0 16 17" fill="none" xmlns="http://www.w3.org/2000/svg">
<path fill-rule="evenodd" clip-rule="evenodd" d="M2.42847 3.66638C2.42847 2.83795 3.10004 2.16638 3.92847 2.16638H6.07132C6.42636 2.16638 6.71418 2.4542 6.71418 2.80924C6.71418 3.16428 6.42636 3.4521 6.07132 3.4521H3.92847C3.81012 3.4521 3.71418 3.54804 3.71418 3.66638V12.6664C3.71418 12.7848 3.81012 12.8807 3.92847 12.8807H6.07132C6.42636 12.8807 6.71418 13.1685 6.71418 13.5235C6.71418 13.8786 6.42636 14.1664 6.07132 14.1664H3.92847C3.10004 14.1664 2.42847 13.4948 2.42847 12.6664V3.66638ZM8.05189 7.52352L9.74015 5.83524C9.99121 5.58419 9.99121 5.17715 9.74015 4.9261C9.4891 4.67505 9.08209 4.67505 8.83104 4.9261L6.04533 7.71181C5.79428 7.96286 5.79428 8.3699 6.04533 8.62095L8.83104 11.4066C9.08209 11.6577 9.4891 11.6577 9.74015 11.4066C9.99121 11.1556 9.99121 10.7486 9.74015 10.4976L8.05189 8.80924H12.9285C13.2835 8.80924 13.5713 8.52142 13.5713 8.16638C13.5713 7.81134 13.2835 7.52352 12.9285 7.52352H8.05189Z" fill="#272431"/>
</svg>

<svg xmlns="http://www.w3.org/2000/svg" width="16" height="17" viewBox="0 0 16 17"><path fill-rule="evenodd" d="M2.428 3.666a1.5 1.5 0 011.5-1.5h2.143a.643.643 0 010 1.286H3.928a.214.214 0 00-.214.214v9c0 .119.096.215.214.215h2.143a.643.643 0 110 1.285H3.928a1.5 1.5 0 01-1.5-1.5v-9zm5.624 3.858L9.74 5.835a.643.643 0 10-.909-.909L6.045 7.712a.643.643 0 000 .909l2.786 2.786a.643.643 0 10.91-.91L8.05 8.81h4.877a.643.643 0 000-1.285H8.052z"/></svg>
